X:1
T:He Cometh!
T:He Cometh!
T:William Tillotson Pettengell
T:William Tillotson Pettengell, 1910
T:Public Domain Courtesy of the Cyber Hymnal™
T:Public Domain Courtesy of the Cyber Hymnal™
T:Public Domain Courtesy of the Cyber Hymnal™
C:William Tillotson Pettengell
Z:Public Domain
Z:Courtesy of the Cyber Hymnal™
%%score 1 ( 2 3 )
L:1/8
Q:1/4=107
M:6/8
K:C
V:1 treble 
V:2 bass 
V:3 bass 
V:1
 [CE][DF][^D^F] [=FA][EG][D^F] | [EG][Ec][Fd] [Ge][^F^d][Ge] | [Fd][FA][GB] [Bd][Ac][FA] | %3
w: 1.~Je- sus is com- ing! go,|her- ald the tid- ings Far|o- ver the land and the|
w: 2.~Lift up your heads and re-|joice, O ye right- eous, Your|per- fect re- demp- tion is|
w: 3.~Come, dear Lord Je- sus, Thy|prom- ise ful- fill- ing; “Come|quick- ly!” our souls cry to|
 [EG]3- [EG]2 z | [EG][^D^F][EG] [=FA][EG][D^F] | [EG][Ec][Fd] [Ge][^F^d][Ge] | %6
w: sea; *|Je- sus is com- ing to|ga- ther the ran- somed, Re-|
w: nigh; *|Swift- ly the dark- ness of|mid- night ap- proach- es, “He|
w: Thee: *|Long has the world been en-|thralled by the tempt- er, The|
 [^Fd][Fc][FB] [FA][FB][Fc] | [Fd]3- [Fd]2 z | [CE][DF][^D^F] [=FA][EG][D^F] | %9
w: deemed by His death on the|tree. *|An- gels at- tend- ing, the|
w: com- eth” shall sound from the|sky. *|Long has the bat- tle been|
w: curse is on land and on|sea. *|Yet Thou shalt tri- umph, the|
 [EG][Ec][Fd] [Ge][^F^d][Ge] | [Fd][FA][GB] [Bd][Ac][FA] | [EG]3- [EG]2 z | %12
w: heav- ens de- scend- ing— All|lang- uage our joy will trans-|cend, *|
w: waged a- gainst e- vil By|suf- fer- ing saints here be-|low. *|
w: na- tions sub- du- ing, The|truth of the Word can- not|fail; *|
 [FA][F^G][FA] [Fd][Fc][FA] | [EG][^D^F][EG] [Gc][=F^d][Ee] | [^Fd][FA][Fc] [=FB][Fc][Fd] | %15
w: When we shall see Him, the|king in His beau- ty, Our|bride- groom, Re- deem- er, and|
w: Je- sus is com- ing to|ban- ish our sor- row, And|lead us where tears nev- er|
w: God’s wond- rous glo- ry, like|o- cean’s deep bil- lows, To|earth’s far- thest bounds shall pre-|
 [Ec]3- [Ec]2 z ||"^Refrain" [Ge]3- [Ge][^F^d][Ge] | [Ec]3- [Ec][Fd][Ge] | %18
w: friend. *|Je- * sus is|com- * ing, our|
w: flow. *|||
w: vail. *|||
 [Fd][FA][GB] [Bd][Ac]>[FA] | [EG]3- [EG]2 z | [Ge]3- [Ge][^F^d][Ge] | [Ec]3- [Ec][Ed][Ee] | %22
w: Sav- ior and lov- er di-|vine; *|Soon * in His|glo- * ry the|
w: ||||
w: ||||
 [^Fd][Fc][FB] [FA][Fc][Fe] | [Fd]3- [Fd]2 z | [Ge]3- [Ge][^F^d][Ge] | [Ec]3- [Ec][Fd][Ge] | %26
w: ran- somed of ag- es will|shine; *|Ag- * es on|ag- * es we’ll|
w: ||||
w: ||||
 [Fd][FA][GB] [Bd][Ac][FA] | [EG]3- [EG]2 z | [FA][F^G][FA] [Bd][Ac][FA] | %29
w: reign with our king on His|throne; *|Won- der- ful sto- ry! We’ll|
w: |||
w: |||
 [EG][^D^F][EG] [Gc][G^d][Ge] | [^Fd][FA][Fc] [=FB][Fc][Fd] | [Ec]3- [Ec]2 z |] %32
w: share in His glo- ry, Re-|deemed by His mer- cy di-|vine. *|
w: |||
w: |||
V:2
 C,[G,C][A,C] C,[G,C][A,C] | C,[G,C][G,C] C,[A,C][G,C] | F,[A,C]C F,[A,C][A,C] | (C,E,A,G,E,D,) | %4
w: ~ ~ ~ ~ ~ ~|~ ~ ~ ~ ~ ~|~ ~ ~ ~ ~ ~|~ * * * * *|
 C,[A,C][G,C] C,[G,C][A,C] | C,[G,C][G,C] C,[A,C][G,C] | D,[^F,C][F,C] D,[F,A,][F,A,] | %7
w: ~ ~ ~ ~ ~ ~|~ ~ ~ ~ ~ ~|~ ~ ~ ~ ~ ~|
 (G,,B,,D, G,F,D,) | C,[G,C][A,C] C,[G,C][A,C] | C,[A,C][_A,C] C,[=A,C][G,C] | F,[A,C]C F,[A,C]C | %11
w: ~ * * * * *|~ ~ ~ ~ ~ ~|~ ~ ~ ~ ~ ~|~ ~ ~ ~ ~ ~|
 (C,CA, G,E,G,) | F,[A,C][A,C] F,[A,C][A,C] | C,[A,C][G,C-] [E,C][D,B,][C,C] | %14
w: ~ * * * * *|~ ~ ~ ~ ~ ~|~ ~ ~ ~ ~ ~|
 D,[^F,C][F,A,] G,,A,,B,, | [C,G,]3- [C,G,]2 z || z2 [C,G,] [C,C][C,C][C,C] | %17
w: ~ ~ ~ ~ ~ ~|Yes, *|Je- sus is com-|
 [C,G,][C,A,][C,B,] [C,C][C,B,][C,_B,] | [F,A,][F,C][F,C] [F,F][F,F]>[F,C] | %19
w: ing, is com- ing, ~ ~|~ ~ ~ ~ ~ ~|
 [C,C][C,B,][C,A,] [C,G,][C,A,][C,B,] | [C,C] z [C,G,] [C,C][C,A,][C,G,] | %21
w: E- ven so, quick- ly come!|Yes, soon in His glo-|
 A,[A,C][A,D] [A,E][A,C][A,C] | [D,C][D,E][D,D] [D,C][D,A,][D,C] | B,3- B,2 D, | %24
w: ry re- splen- dent the ~|~ ~ ~ ~ ~ ~|~ * ~|
 C, z [C,G,] [C,G,][C,A,][C,B,] | [C,C][C,B,][C,A,] [C,G,][C,G,][C,_B,] | %26
w: ~ ~ ~ Through ag-|es on ag- es e- ter-|
 [F,A,][F,C][F,C] [F,F][F,F][F,C] | [C,C][C,B,][C,A,] (G,A,)_B, | %28
w: nal ~ ~ ~ ~ ~|~ ~ ~ on * His|
 [F,A,][F,B,][F,C] [F,F][F,F][F,C] | [C,C][C,A,][C,G,] [E,C][D,B,][C,C] | %30
w: throne; O won- der- ful *||
 [D,C][D,C][D,A,] G,[G,A,][G,B,] | [C,C]3- [C,C]2 z |] %32
w: ||
V:3
 C,3 C,3 | C,3 C,3 | F,3 F,3 | C,3- C,3 | C,3 C,3 | C,3 C,3 | D,3 D,3 | x6 | C,3 C,3 | C,3 C,3 | %10
 F,3 F,3 | C,3- C,2 x | F,3 F,3 | C,3 x3 | D,3 x3 | x6 || x6 | x6 | x6 | x6 | x6 | A, x5 | x6 | %23
 G,B,A, G,F, x | x6 | x6 | x6 | x3 C,2 x | x6 | x6 | x3 G, x2 | x6 |] %32

